X:1
T:Springlek efter Omas Per
S:efter [[!Omas Per]]
S:känd genom [[!Mattias Helje]]
R:Polska
Z:Anton Teljebäck 2007-12-09
O:Dalarna
M:3/4
L:1/8
K:Dm
(3(efg) (a>g) a>b | a>g f<e f>g | f>(e (3d)(^cd) e>f | (df)g- ga/g/ (f/d/)(e/^c/) |
A2 (a>g) a>b |a>g f<e f>a | (gb) (a>f) e>d | (3^c(=Bc) d4 :| 
(3(A=B^c) (d>^c) d>e | f>g f<e d>g | f>e (3d(^cd) e>f | (3(df)g- ga/g/ (f/d/)(e/^c/) |
(3(A=B^c) (d>^c) d>e | f>g f<e f>a | (gb) (a>f) e>d | (3^c(=Bc) d4 :|

